public/cloud-icons/azure/iot/iot-central.svg

<svg xmlns="http://www.w3.org/2000/svg" xml:space="preserve" width="60.467" height="75.597" style="font-size:12px;overflow:visible;color-interpolation-filters:sRGB;fill-rule:evenodd;stroke-linecap:square;stroke-miterlimit:3" viewBox="0 0 45.35 56.698"><g transform="translate(-4.536 -5.666)"><title>Page-1</title><g transform="translate(4.535 -34.016)"><title>IoT Central.21945</title><title>Sheet.21946</title><path d="M22.68 39.69 0 53.83v9.45l8.81 5.82v-5.67l-4.62-2.89v-3.91l18.49-11.65 18.49 11.68v22.62L22.68 90.93 0 76.79v5.29l22.68 14.3 22.67-14.14V53.89Z" style="fill:#a3a3a3;stroke:none;stroke-width:.75;stroke-linecap:butt"/><g transform="translate(0 -39.748)"><title>Sheet.21947</title><path d="M22.68 79.43 0 93.57l4.19 2.81 18.49-11.66 18.49 11.66 4.18-2.81Z" style="fill:#949494;stroke:none;stroke-width:.75;stroke-linecap:butt"/></g><g transform="translate(22.677 -12.819)"><title>Sheet.21948</title><path d="M12.28 73.1v15.5L0 96.38v-15.5z" style="fill:#32bedd;stroke:none;stroke-width:.75;stroke-linecap:butt"/></g><g transform="translate(10.4 -28.315)"><title>Sheet.21949</title><path d="m24.55 88.6-12.27 7.78L0 88.6l12.28-7.78Z" style="fill:#9cebff;stroke:none;stroke-width:.75;stroke-linecap:butt"/></g><g transform="translate(10.4 -12.819)"><title>Sheet.21950</title><path d="M12.28 80.88v15.5L0 88.6V73.1Z" style="fill:#50e6ff;stroke:none;stroke-width:.75;stroke-linecap:butt"/></g><g transform="translate(10.4 -12.819)"><title>Sheet.21951</title><path d="m0 88.6 12.28-7.72v15.5z" style="fill:#9cebff;stroke:none;stroke-width:.75;stroke-linecap:butt"/></g><g transform="translate(22.677 -12.819)"><title>Sheet.21952</title><path d="M12.28 88.6 0 80.88v15.5z" style="fill:#50e6ff;stroke:none;stroke-width:.75;stroke-linecap:butt"/></g></g></g></svg>

<?xml version="1.0" encoding="UTF-8" standalone="no"?>
<!-- Generated by Microsoft Visio, SVG Export IoT Central.svg Page-1 -->

<svg
   xmlns:dc="http://purl.org/dc/elements/1.1/"
   xmlns:cc="http://creativecommons.org/ns#"
   xmlns:rdf="http://www.w3.org/1999/02/22-rdf-syntax-ns#"
   xmlns:svg="http://www.w3.org/2000/svg"
   xmlns="http://www.w3.org/2000/svg"
   xmlns:sodipodi="http://sodipodi.sourceforge.net/DTD/sodipodi-0.dtd"
   xmlns:inkscape="http://www.inkscape.org/namespaces/inkscape"
   width="0.62985951in"
   height="0.78747022in"
   viewBox="0 0 45.349859 56.697997"
   xml:space="preserve"
   class="st6"
   version="1.1"
   id="svg46"
   sodipodi:docname="IoT Central.svg"
   style="font-size:12px;overflow:visible;color-interpolation-filters:sRGB;fill:none;fill-rule:evenodd;stroke-linecap:square;stroke-miterlimit:3"
   inkscape:version="0.92.5 (2060ec1f9f, 2020-04-08)"><metadata
   id="metadata52"><rdf:RDF><cc:Work
       rdf:about=""><dc:format>image/svg+xml</dc:format><dc:type
         rdf:resource="http://purl.org/dc/dcmitype/StillImage" /></cc:Work></rdf:RDF></metadata><defs
   id="defs50" /><sodipodi:namedview
   pagecolor="#ffffff"
   bordercolor="#666666"
   borderopacity="1"
   objecttolerance="10"
   gridtolerance="10"
   guidetolerance="10"
   inkscape:pageopacity="0"
   inkscape:pageshadow="2"
   inkscape:window-width="640"
   inkscape:window-height="480"
   id="namedview48"
   showgrid="false"
   inkscape:zoom="1.8365233"
   inkscape:cx="30.236153"
   inkscape:cy="18.900351"
   inkscape:window-x="0"
   inkscape:window-y="0"
   inkscape:window-maximized="0"
   inkscape:current-layer="svg46" />
	<style
   type="text/css"
   id="style2">
	<![CDATA[
		.st1 {fill:#a3a3a3;stroke:none;stroke-linecap:butt;stroke-width:0.75}
		.st2 {fill:#949494;stroke:none;stroke-linecap:butt;stroke-width:0.75}
		.st3 {fill:#32bedd;stroke:none;stroke-linecap:butt;stroke-width:0.75}
		.st4 {fill:#9cebff;stroke:none;stroke-linecap:butt;stroke-width:0.75}
		.st5 {fill:#50e6ff;stroke:none;stroke-linecap:butt;stroke-width:0.75}
		.st6 {fill:none;fill-rule:evenodd;font-size:12px;overflow:visible;stroke-linecap:square;stroke-miterlimit:3}
	]]>
	</style>

	<g
   id="g44"
   transform="translate(-4.5355124,-5.6663)">
		<title
   id="title4">Page-1</title>
		<g
   id="group21945-1"
   transform="translate(4.53543,-34.0157)">
			<title
   id="title6">IoT Central.21945</title>
			<g
   id="shape21946-2">
				<title
   id="title8">Sheet.21946</title>
				<path
   d="M 22.68,39.69 0,53.83 v 9.45 L 8.81,69.1 V 63.43 L 4.19,60.54 V 56.63 L 22.68,44.98 41.17,56.66 V 79.28 L 22.68,90.93 0,76.79 v 5.29 L 22.68,96.38 45.35,82.24 V 53.89 Z"
   class="st1"
   id="path10"
   inkscape:connector-curvature="0"
   style="fill:#a3a3a3;stroke:none;stroke-width:0.75;stroke-linecap:butt" />
			</g>
			<g
   id="shape21947-4"
   transform="translate(0,-39.748)">
				<title
   id="title13">Sheet.21947</title>
				<path
   d="M 22.68,79.43 0,93.57 4.19,96.38 22.68,84.72 41.17,96.38 45.35,93.57 Z"
   class="st2"
   id="path15"
   inkscape:connector-curvature="0"
   style="fill:#949494;stroke:none;stroke-width:0.75;stroke-linecap:butt" />
			</g>
			<g
   id="shape21948-6"
   transform="translate(22.6772,-12.8189)">
				<title
   id="title18">Sheet.21948</title>
				<path
   d="M 12.28,73.1 V 88.6 L 0,96.38 v -15.5 z"
   class="st3"
   id="path20"
   inkscape:connector-curvature="0"
   style="fill:#32bedd;stroke:none;stroke-width:0.75;stroke-linecap:butt" />
			</g>
			<g
   id="shape21949-8"
   transform="translate(10.3997,-28.315)">
				<title
   id="title23">Sheet.21949</title>
				<path
   d="M 24.55,88.6 12.28,96.38 0,88.6 12.28,80.82 Z"
   class="st4"
   id="path25"
   inkscape:connector-curvature="0"
   style="fill:#9cebff;stroke:none;stroke-width:0.75;stroke-linecap:butt" />
			</g>
			<g
   id="shape21950-10"
   transform="translate(10.3997,-12.8189)">
				<title
   id="title28">Sheet.21950</title>
				<path
   d="m 12.28,80.88 v 15.5 L 0,88.6 V 73.1 Z"
   class="st5"
   id="path30"
   inkscape:connector-curvature="0"
   style="fill:#50e6ff;stroke:none;stroke-width:0.75;stroke-linecap:butt" />
			</g>
			<g
   id="shape21951-12"
   transform="translate(10.3997,-12.8189)">
				<title
   id="title33">Sheet.21951</title>
				<path
   d="m 0,88.6 12.28,-7.72 v 15.5 z"
   class="st4"
   id="path35"
   inkscape:connector-curvature="0"
   style="fill:#9cebff;stroke:none;stroke-width:0.75;stroke-linecap:butt" />
			</g>
			<g
   id="shape21952-14"
   transform="translate(22.6772,-12.8189)">
				<title
   id="title38">Sheet.21952</title>
				<path
   d="M 12.28,88.6 0,80.88 v 15.5 z"
   class="st5"
   id="path40"
   inkscape:connector-curvature="0"
   style="fill:#50e6ff;stroke:none;stroke-width:0.75;stroke-linecap:butt" />
			</g>
		</g>
	</g>
</svg>
